%
(Header)
(Generated by gcodetools from Inkscape.)
(Using default header. To add your own header create file "header" in the output dir.)
M3
(Header end.)
G21 (All units in mm)

(Start cutting path id: path4432-2-2)
(Change tool to Default tool)

G00 Z5.000000
G00 X32.115751 Y91.009110

G01 Z-0.125000 F100.0(Penetrate)
G02 X32.857223 Y88.832351 Z-0.125000 I-20.451232 J-8.180987 F400.000000
G02 X34.576451 Y76.457030 Z-0.125000 I-43.680300 J-12.375321
G02 X33.777905 Y66.061823 Z-0.125000 I-68.059987 J-0.000000
G02 X30.134751 Y44.372990 Z-0.125000 I-830.602331 J128.368987
G02 X25.795028 Y21.862810 Z-0.125000 I-1030.129647 J186.924596
G02 X25.157251 Y18.777860 Z-0.125000 I-626.072069 J127.824674
G02 X22.687369 Y18.543048 Z-0.125000 I-7.888411 J69.867446
G02 X19.865551 Y18.354530 Z-0.125000 I-10.445173 J135.134501
G02 X20.277946 Y24.224340 Z-0.125000 I41879.565622 J-2939.383792
G03 X22.908251 Y64.630150 Z-0.125000 I-3879.155507 J272.810700
G03 X23.282640 Y77.827744 Z-0.125000 I-200.212200 J12.283726
G03 X22.855251 Y87.834110 Z-0.125000 I-131.364446 J-0.598493
G02 X24.046183 Y88.700724 Z-0.125000 I10.082274 J-12.603796
G02 X32.115651 Y91.009110 Z-0.125000 I7.703521 J-11.670857
G01 X32.115751 Y91.009110 Z-0.125000
G00 Z5.000000

(Change tool to Default tool)

G00 Z5.000000
G00 X6.343750 Y2.937500

G01 Z-0.125000 F100.0(Penetrate)
G03 X5.976636 Y6.983098 Z-0.125000 I-5411.491020 J-489.021285 F400.000000
G02 X3.393638 Y37.885651 Z-0.125000 I2064.733685 J188.140560
G02 X1.384580 Y67.937900 Z-0.125000 I1639.356290 J124.687775
G02 X1.634150 Y77.735210 Z-0.125000 I58.965944 J3.399775
G02 X6.122568 Y91.736237 Z-0.125000 I36.383990 J-3.943942
G02 X7.296251 Y93.425000 Z-0.125000 I9.459438 J-5.322034
G02 X8.945859 Y91.480753 Z-0.125000 I-6.837359 J-7.473132
G02 X14.783951 Y71.755630 Z-0.125000 I-30.174452 J-19.657324
G02 X14.305280 Y26.793616 Z-0.125000 I-2111.902471 J0.000001
G03 X13.910851 Y2.540630 Z-0.125000 I2410.742441 J-51.335900
G02 X9.832709 Y2.707133 Z-0.125000 I5.089409 J174.680840
G02 X6.343750 Y2.937500 Z-0.125000 I6.819939 J129.824984
G01 X6.343750 Y2.937500 Z-0.125000
G00 Z5.000000

(End cutting path id: path4432-2-2)


(Footer)
M5
G00 X0.0000 Y0.0000
M2
(Using default footer. To add your own footer create file "footer" in the output dir.)
(end)
%